X:260
T:North Shore
R:reel
Z:added by Alf Warnock - alf0@rogers.com - http://members.rogers.com/alf0
M:2/4
L:1/16
K:D
A2|"D"d2d2 dABc|d2d2 dABc|dcde fedc|"G"B2G2 G2cd|
"A7"e2e2 eAcd|e2e2 eAcd|efed cABc|[1 "D"d2f2 d2:|[2 "D"d2f2 d2fg|
"D"abaf d2Ad|"G"cBBB B2ef|"A7"gage c2Ac|"D"BAAA A2fg|
abaf d2Ad|"G"cBBB B2ef|"A7"gage cABc|[1 "D"d2f2 d2fg:|[2 "D"d2f2 d3|]
